X: 100108
M: 2/4
L: 1/16
K: D
vaua |\
a2ff f2d'd' | d'2aa a2f'f' | f'4 (e'd'c'b) | a4 f2aa |\
a2ff f2d'd' | d'2aa a2d'e' | f'2f'2 e'd'e'f' | d'6 ||
uG2 |\
d4 (defg) | a4 (.f2.f2) | e2{^g}a2 e2{g}a2 | fgef d2A2 |\
d4 (defg) | a4 (.f2.f2) | e2a2c'2b2 | a6 e2 |
f2ff f2fe | decd B2B2 | g2gg g2gf | egde c2A2 |\
d4 (defg) | a4 (.f2.f2) | e2{g}a2e2{g}a2 | d6 A2 |
d4 A2f2 | e4 A2f2 | {a}g2e2{a}g2e2 | {a}g2e2{a}g2e2 |\
d4 A2f2 | d4 A2f2 | {a}g2e2{a}g2e2 | d6 "^D.C."|]


